X:1
T:Title
%%score [ ( 1 2 ) ( 3 4 ) ] { ( 5 6 ) | ( 7 8 ) }
L:1/8
Q:1/4=120
M:4/4
K:C
V:1 treble nm="Midi_74"
V:2 treble 
V:3 bass nm="Midi_74"
V:4 bass 
V:5 treble nm="Org."
V:6 treble 
V:7 bass 
V:8 bass 
V:1
 A8 | B4 c4 | B8 || B8 | c4 d4 | c4 B4 | c8 || c8 | d4 e4 | d8 || d8 | c4 _B4 | %12
"^John Camidge\n(1790-1859)" A4 ^G4 | A8 |] %14
V:2
 C8 | D4 E4 | D8 || (D6 G2) | G4 A4 | G4 F4 | E8 || E8 | F4 G4 | F8 || E8 | E4 D4 | C4 B,4 | A,8 |] %14
V:3
 E8 | E4 E4 | F8 || (F6 D2) | C4 C4 | E4 D4 | C8 || G,8 | G,4 G,4 | G,8 || ^G,8 | A,4 F4 | E4 D4 | %13
 C8 |] %14
V:4
 A,8 | A,4 A,4 | A,8 || (G,6 F,2) | E,4 F,4 | G,4 G,4 | C,8 || C,8 | C,4 C,4 | C,8 || B,,8 | %11
 A,,4 D,4 | E,4 E,4 | A,,8 |] %14
V:5
 A8 | B4 c4 | B8 || [GB]8 | c4 d4 | c4 B4 | c8 || c8 | d4 e4 | d8 || d8 | c4 _B4 | A4 ^G4 | A8 |] %14
V:6
 C8 | D4 E4 | D8 || D8 | [CG]4 [FA]4 | [EG]4 [DFG]4 | [EG]8 || E8 | F4 G4 | F8 || E8 | E4 D4 | %12
 C4 [B,D]4 | C8 |] %14
V:7
 A,8 | A,4 A,4 | A,8 || x8 | x8 | x8 | x8 || x8 | x8 | x8 || x8 | x8 | x8 | x8 |] %14
V:8
 A,,8- | A,,8 | A,,8 || [G,,G,]6 [F,,F,]2 | [E,,E,]4 [F,,F,]4 | [G,,G,]4 [G,,G,]4 | [C,G,]8 || %7
 [C,G,]8 | [C,G,]4 [C,G,]4 | [C,G,]8 || [B,,E,^G,]8 | [A,,E,A,]4 [D,F,]4 | E,4 [E,,E,]4 | %13
 [A,,E,]8 |] %14

